build/img/viber.svg

<svg width="25" height="25" viewBox="0 0 25 25" fill="none" xmlns="http://www.w3.org/2000/svg">
<rect x="0.5" y="0.5" width="24" height="24" rx="12" fill="#010914" stroke="white"/>
<path d="M17.4543 7.53906C16.2195 6.30859 14.5732 5.625 12.8354 5.625C9.22256 5.625 6.29573 8.54167 6.29573 12.1419C6.29573 13.2812 6.61585 14.4206 7.16463 15.3776L6.25 18.75L9.72561 17.8385C10.686 18.3398 11.7378 18.6133 12.8354 18.6133C16.4482 18.6133 19.375 15.6966 19.375 12.0964C19.3293 10.4102 18.689 8.76953 17.4543 7.53906ZM15.9909 14.4661C15.8537 14.8307 15.2134 15.1953 14.8933 15.2409C14.6189 15.2865 14.253 15.2865 13.8872 15.1953C13.6585 15.1042 13.3384 15.013 12.9726 14.8307C11.3262 14.1471 10.2744 12.5065 10.1829 12.3698C10.0915 12.2786 9.49695 11.5039 9.49695 10.6836C9.49695 9.86328 9.90854 9.4987 10.0457 9.31641C10.1829 9.13411 10.3659 9.13411 10.503 9.13411C10.5945 9.13411 10.7317 9.13411 10.8232 9.13411C10.9146 9.13411 11.0518 9.08854 11.189 9.40755C11.3262 9.72656 11.6463 10.5469 11.6921 10.5924C11.7378 10.6836 11.7378 10.7747 11.6921 10.8659C11.6463 10.957 11.6006 11.0482 11.5091 11.1393C11.4177 11.2305 11.3262 11.3672 11.2805 11.4128C11.189 11.5039 11.0976 11.5951 11.189 11.7318C11.2805 11.9141 11.6006 12.4154 12.1037 12.8711C12.7439 13.418 13.247 13.6003 13.4299 13.6914C13.6128 13.7826 13.7043 13.737 13.7957 13.6458C13.8872 13.5547 14.2073 13.1901 14.2988 13.0078C14.3902 12.8255 14.5274 12.8711 14.6646 12.9167C14.8018 12.9622 15.625 13.3724 15.7622 13.4635C15.9451 13.5547 16.0366 13.6003 16.0823 13.6458C16.128 13.7826 16.128 14.1016 15.9909 14.4661Z" fill="white"/>
</svg>

<svg width="25" height="25" fill="none" xmlns="http://www.w3.org/2000/svg"><rect x=".5" y=".5" width="24" height="24" rx="12" fill="#010914" stroke="#fff"/><path d="M17.454 7.54a6.518 6.518 0 00-4.619-1.915c-3.612 0-6.54 2.917-6.54 6.517 0 1.14.32 2.279.87 3.236L6.25 18.75l3.476-.912c.96.502 2.012.775 3.11.775 3.612 0 6.539-2.916 6.539-6.517-.046-1.686-.686-3.326-1.92-4.557zm-1.463 6.926c-.137.365-.778.73-1.098.775-.274.046-.64.046-1.006-.046-.229-.09-.549-.182-.914-.364-1.647-.684-2.699-2.324-2.79-2.461-.091-.091-.686-.866-.686-1.686s.412-1.185.549-1.368c.137-.182.32-.182.457-.182h.32c.092 0 .229-.045.366.274.137.319.457 1.139.503 1.184a.29.29 0 010 .274c-.046.091-.091.182-.183.273-.091.091-.183.228-.229.274-.091.09-.182.182-.091.319.091.182.412.683.915 1.14.64.546 1.143.728 1.326.82.183.09.274.045.366-.046.091-.091.411-.456.503-.638.091-.182.228-.137.366-.091.137.045.96.455 1.097.546.183.092.275.137.32.183.046.137.046.456-.091.82z" fill="#fff"/></svg>
